!!!!SEGMENT: pl-wtm--r-2047_smietanski-emil-wladyslaw--iiime-etude-de-concert.krn
!!!cenid: 18xx:2031
!!!COM: Śmietański, Emil Władysław
!!!COM-rismID:
!!!CDT: 1845-1886
!!!CNT: Polish
!!!OTL: IIIme Etude de Concert
!!!PDT: 1877
!!!AGN: Secular; Etude
!!!SMS-siglum: PL-Wtm
!!!SMS-shelfmark: R 2047
!!!SMS-shelfwork: W
!!!SMS-variant:
!!!SMS-altvar:
!!!NIFC-rismSourceID: 1001111853
!!!NIFC-islandoraID: pl-wtm:29687
!!!URL-pdf-islandora: https://repozytorium.nifc.pl/islandora/object/pl-wtm%3A29687/datastream/PDF/view
!!!URL-scan: https://polish.musicsources.pl/pl/lokalizacje/galeria/rekopisy/6538 @EN{Scan on Polish Music Herritage in Open Access Website} @PL{Skany w portalu Dziedzictwo Muzyki Polskiej w otwartym dostępie}
!!!ONB-nifc:
!!!AIN: 1 forte
!!!key:
**kern	**fing	**kern	**fing	**dynam
*part1	*	*part1	*	*part1
*staff2	*	*staff1	*	*
*Iforte	*	*Iforte	*	*
*I"Fortepian	*	*I"Fortepian	*	*
*pf	*	*I'pf	*	*
*clefF4	*	*clefG2	*	*
*k[]	*	*k[]	*	*
*C:	*	*C:	*	*
*M3/4	*	*M3/4	*	*
=1	=1	=1	=1	=1
!!LO:TX:t=P:problem:palcowanie wpisane ołówkiem
!	!	!LO:TX:b:i:t=con pedale	!	!
!	!	!LO:TX:a:i:t=Commodo. e ben distinto il canto.	!	!
16CC\LL	.	16ee\LL	.	p
16GG\	3	16g\	.	.
16G\	.	16c\	.	.
16GG\JJ	.	16g\JJ	.	.
16CC\LL	.	16ee\LL	.	.
16GG\	.	16g\	.	.
16G\	.	16c\	.	.
16GG\JJ	.	16g\JJ	.	.
16CC\LL	.	16ee\LL	.	.
16GG\	.	16g\	.	.
16G\	.	16c\	.	.
16GG\JJ	.	16g\JJ	.	.
=2	=2	=2	=2	=2
16CC\LL	.	16ee\LL	.	.
16GG\	.	16cc\	4	.
16E\	.	16c\	.	.
16GG\JJ	.	16cc\JJ	.	.
16CC\LL	.	16dd\LL	.	.
16GG\	.	16b\	.	.
16F\	.	16d\	.	.
16GG\JJ	.	16b\JJ	.	.
16CC\LL	.	16ee\LL	.	.
16GG\	.	16b-X\	.	.
16G\	.	16c\	.	.
16GG\JJ	.	16b-\JJ	.	.
=3	=3	=3	=3	=3
16FF\LL	.	16gg\LL	.	.
16D\	.	16a\	.	.
16A\	.	16d\	.	.
16D\JJ	.	16a\JJ	.	.
16FF\LL	.	16ff\LL	.	.
16D\	.	16a\	.	.
16A\	.	16d\	.	.
16D\JJ	.	16a\JJ	.	.
16FF#X\LL	.	16ee\LL	.	.
16D\	.	16a\	3	.
16A\	.	16c\	.	.
16D\JJ	.	16a\JJ	.	.
=4	=4	=4	=4	=4
16GG\LL	.	16dd\LL	.	.
16D\	.	16f\	.	.
16G\	.	16B\	.	.
16D\JJ	.	16f\JJ	.	.
16GG\LL	.	16dd\LL	.	.
16D\	.	16f\	.	.
16G\	.	16B\	.	.
16D\JJ	.	16f\JJ	.	.
16GG\LL	.	16gg\LL	.	.
16F\	.	16b\	.	.
16B\	.	16d\	.	.
16F\JJ	.	16b\JJ	.	.
=5	=5	=5	=5	=5
16CC\LL	.	16ee\LL	.	.
16GG\	.	16cc\	.	.
16G\	.	16e\	.	.
16GG\JJ	.	16cc\JJ	.	.
16CC\LL	.	16cc\LL	.	.
16GG\	.	16g\	.	.
16G\	.	16e\	.	.
16GG\JJ	.	16g\JJ	.	.
16CC\LL	.	16ee\LL	.	.
16GG\	.	16cc\	.	.
16G\	.	16c\	.	.
16GG\JJ	.	16cc\JJ	.	.
!!LO:LB:g=original
=6	=6	=6	=6	=6
16GGG\LL	.	16ee\LL	.	.
16EE\	.	16b\	.	.
16BB\	.	16e\	.	.
16EE\JJ	.	16b\JJ	.	.
16GGG\LL	.	16b\LL	.	.
16EE\	.	16g\	.	.
16BB\	.	16e\	.	.
16EE\JJ	.	16g\JJ	.	.
16GGG\LL	.	16ee\LL	.	.
16EE\	.	16b\	.	.
16BB\	.	16B\	.	.
16EE\JJ	.	16b\JJ	.	.
=7	=7	=7	=7	=7
16FF\LL	.	16a\LL	.	.
16C\	.	16f\	.	.
16A\	.	16c\	.	.
16C\JJ	.	16f\JJ	.	.
16FF\LL	.	16b\LL	.	.
16D\	.	16f\	.	.
16G#X\	.	16B\	.	.
16D\JJ	.	16f\JJ	.	.
16FF\LL	.	16cc\LL	.	.
16C\	.	16f\	.	.
16A\	.	16A\	.	.
16C\JJ	.	16f\JJ	.	.
=8	=8	=8	=8	=8
16BBB\LL	.	16dd\LL	.	.
16GG\	.	16f\	.	.
16D\	.	16G\	.	.
16GG\JJ	.	16f\JJ	.	.
16BBB\LL	.	16dd\LL	.	.
16GG\	.	16f\	.	.
16D\	.	16G\	.	.
16GG\JJ	.	16f\JJ	.	.
16DD\LL	.	16g\LL	.	.
16BB\	.	16f\	.	.
16D\	.	16G\	.	.
16BB\JJ	.	16f\JJ	.	.
=9	=9	=9	=9	=9
16CC\LL	.	16eeLL 16e\	.	.
16GG\	3	16g\	.	.
16G\	.	16c\	.	.
16GG\JJ	.	16g\JJ	.	.
16CC\LL	.	16ee\LL	.	.
16GG\	.	16g\	.	.
16G\	.	16c\	.	.
16GG\JJ	.	16g\JJ	.	.
16CC\LL	.	16ee\LL	.	.
16GG\	.	16g\	.	<
16G\	.	16c\	.	.
16GG\JJ	.	16g\JJ	.	.
=10	=10	=10	=10	=10
16CC\LL	.	16ee\LL	.	.
16GG\	.	16cc\	.	.
16E\	.	16c\	.	.
16GG\JJ	.	16cc\JJ	.	.
16CC\LL	.	16dd\LL	.	.
16GG\	.	16b\	.	.
16F\	.	16d\	.	.
16GG\JJ	.	16b\JJ	.	.
16CC\LL	.	16dd\LL	.	.
16GG\	.	16b-X\	2	.
16G\	.	16c\	.	.
16GG\JJ	.	16b-\JJ	.	[[
!!LO:LB:g=original
=11	=11	=11	=11	=11
16FF\LL	.	16gg\LL	.	>
16D\	.	16a\	.	.
16A\	.	16d\	.	.
16D\JJ	.	16a\JJ	.	.
16FF\LL	.	16ff\LL	.	.
16D\	.	16a\	.	.
16A\	.	16d\	.	.
16D\JJ	.	16a\JJ	.	.
16FF#X\LL	.	16ee\LL	.	.
16D\	.	16a\	.	.
16A\	.	16c\	.	.
16D\JJ	.	16a\JJ	.	.
=12	=12	=12	=12	=12
16GG\LL	.	16dd\LL	.	]
16D\	.	16f\	.	.
16G\	.	16B\	.	.
16D\JJ	.	16f\JJ	.	.
16GG\LL	.	16dd\LL	.	.
16D\	.	16f\	.	.
16G\	.	16B\	.	.
16D\JJ	.	16f\JJ	.	.
16GG\LL	.	16gg\LL	.	.
16F\	.	16b\	.	.
16B\	.	16d\	.	.
16F\JJ	.	16b\JJ	.	.
=13	=13	=13	=13	=13
!	!	!	!	!LO:DY:t=p.
16AAA\LL	.	16cc\LL	5	p
16EE\	.	16a\	4	.
16E\	.	16A\	.	.
16EE\JJ	.	16a\JJ	.	.
16AAA\LL	.	16cc\LL	.	.
16EE\	.	16a\	.	.
16E\	.	16A\	.	.
16EE\JJ	.	16a\JJ	.	.
16AAA\LL	.	16cc#X\LL	.	.
16EE\	.	16g\	.	.
16E\	.	16A\	.	.
16EE\JJ	.	16g\JJ	.	.
=14	=14	=14	=14	=14
16FF\LL	.	16dd\LL	.	.
16D\	.	16f\	.	.
16A\	.	16d\	.	.
16D\JJ	.	16f\JJ	.	.
16EE\LL	.	16ee\LL	.	.
16AA\	.	16a\	2	.
16G\	.	16c#X\	.	.
16AA\JJ	.	16a\JJ	.	.
16DD\LL	.	16ff\LL	.	.
16AA\	.	16a\	.	.
16F\	.	16d\	.	.
16AA\JJ	.	16a\JJ	.	.
=15	=15	=15	=15	=15
16GG\LL	.	16ee\LL	.	.
16F\	.	16g\	.	.
16G\	.	16B\	.	.
16F\JJ	.	16g\JJ	.	.
16GG\LL	.	16ee\LL	.	.
16F\	.	16g\	.	.
16G\	.	16B\	.	.
16F\JJ	.	16g\JJ	.	.
16GG\LL	.	16dd\LL	.	.
16F\	.	16g\	.	.
16G\	.	16B\	.	.
16F\JJ	.	16g\JJ	.	.
!!LO:LB:g=original
=16	=16	=16	=16	=16
16CC\LL	.	16cc\LL	.	.
16GG\	3	16g\	.	.
16E\	.	16c\	.	.
16GG\JJ	.	16g\JJ	.	.
16CC\LL	.	16cc\LL	.	.
16GG\	.	16g\	.	.
16E\	.	16G\	.	.
16GG\JJ	.	16g\JJ	.	.
16CC\LL	.	16cc\LL	.	.
16GG\	.	16g\	.	.
16E\	.	16c\	.	.
16GG\JJ	.	16g\JJ	.	.
=17||	=17||	=17||	=17||	=17||
16CC\LL	.	16ee\LL	.	.
16GG\	2	16g\	.	<
16E\	.	16c\	.	.
16GG\JJ	.	16g\JJ	.	.
16CC\LL	.	16ee\LL	.	.
16GG\	.	16g\	.	.
16E\	.	16c\	.	.
16GG\JJ	.	16g\JJ	.	.
16CC\LL	.	16ee\LL	.	.
16FF#X\	.	16a\	.	.
16E\	.	16A\	.	.
16FF#\JJ	.	16a\JJ	.	.
=18	=18	=18	=18	=18
16BBB\LL	.	16ee\LL	.	.
16GG\	2	16b\	.	.
16E\	.	16e\	.	.
16GG\JJ	.	16b\JJ	.	.
16BBB\LL	.	16b\LL	.	.
16GG\	.	16g\	.	.
16E\	.	16e\	.	.
16GG\JJ	.	16g\JJ	.	.
16BBB\LL	.	16ee\LL	.	.
16GG\	.	16b\	.	.
16E\	.	16e\	.	.
16GG\JJ	.	16b\JJ	.	.
=19	=19	=19	=19	=19
16BBB\LL	.	16ff#X\LL	.	.
16AA\	.	16b\	2	.
16BB\	.	16d#X\	.	.
16AA\JJ	.	16b\JJ	.	.
16BBB\LL	.	16gg\LL	.	.
16AA\	.	16b\	.	.
16BB\	.	16d#\	.	.
16AA\JJ	.	16b\JJ	.	.
16BBB\LL	.	16dd#X\LL	.	[
16FF#X\	.	16a\	.	.
16BB\	.	16B\	.	.
16FF#\JJ	.	16a\JJ	.	.
=20	=20	=20	=20	=20
16EE\LL	.	16ee\LL	.	>
16BB\	.	16g\	.	.
16G\	.	16B\	.	.
16BB\JJ	.	16g\JJ	.	.
16EE\LL	.	16ee\LL	.	.
16BB\	.	16g\	.	.
16G\	.	16B\	.	.
16BB\JJ	.	16g\JJ	.	.
16EE\LL	.	16ee\LL	.	.
16BB\	.	16g\	.	.
16G\	.	16B\	.	.
16BB\JJ	.	16g\JJ	.	]]
!!LO:LB:g=original
=21	=21	=21	=21	=21
16EE\LL	.	16gg\LL	.	.
16BB\	.	16b\	.	.
16G\	.	16e\	.	<
16BB\JJ	.	16b\JJ	.	.
16EE\LL	.	16gg\LL	.	.
16BB-X\	.	16cc\	.	.
16G\	.	16e\	.	.
16BB-\JJ	.	16cc\JJ	.	.
16EE\LL	.	16gg\LL	.	.
16AA\	.	16cc#X\	3	.
16G\	.	16e\	.	.
16AA\JJ	.	16cc#\JJ	.	.
=22	=22	=22	=22	=22
16DD\LL	.	16gg\LL	.	.
16BB\	.	16dd\	.	.
16G\	.	16g\	.	.
16BB\JJ	.	16dd\JJ	.	.
16DD\LL	.	16dd\LL	.	.
16BB\	.	16b\	.	.
16G\	.	16g\	.	.
16BB\JJ	.	16b\JJ	.	.
16DD\LL	.	16gg\LL	.	.
16BB\	.	16dd\	.	.
16G\	.	16g\	.	.
16BB\JJ	.	16dd\JJ	.	.
=23	=23	=23	=23	=23
16DD\LL	.	16aa\LL	.	.
16C\	.	16dd\	2	.
16D\	.	16f#X\	.	.
16C\JJ	.	16dd\JJ	.	.
16DD\LL	.	16bb\LL	.	[
16C\	.	16dd\	.	.
16D\	.	16f#\	.	.
16C\JJ	.	16dd\JJ	.	.
16DD\LL	.	16ff#X\LL	.	.
16AA\	.	16cc\	3	>
16D\	.	16d\	.	.
16AA\JJ	.	16cc\JJ	.	.
=24	=24	=24	=24	=24
16GG\LL	.	16gg\LL	.	.
16D\	.	16b\	.	.
16B\	.	16d\	.	.
16D\JJ	.	16b\JJ	.	.
16GG\LL	.	16gg\LL	.	.
16D\	.	16b\	.	.
16B\	.	16d\	.	.
16D\JJ	.	16b\JJ	.	.
16GG\LL	.	16gg\LL	.	]
16D\	.	16b\	.	.
16B\	.	16d\	.	.
16D\JJ	.	16b\JJ	.	.
=25	=25	=25	=25	=25
!	!	!	!	!LO:DY:t=f.
16GGG\LL	.	16bb\LL	.	f
16DD\	.	16dd\	.	.
16BB\	.	16g\	.	.
16DD\JJ	3	16dd\JJ	.	.
16BBB\LL	.	16bb\LL	.	.
16GG\	2	16dd\	.	.
16D\	.	16g\	.	.
16GG\JJ	3	16dd\JJ	.	.
16DD\LL	.	16bb\LL	.	.
16BB\	2	16dd\	.	.
16G\	.	16g\	.	.
16BB\JJ	3	16dd\JJ	.	.
!!LO:LB:g=original
=26	=26	=26	=26	=26
16GG\LL	.	16ddd\LL	.	.
16D\	.	16gg\	.	.
16B\	.	16g\	.	.
16D\JJ	.	16gg\JJ	.	.
16BB\LL	.	16ddd\LL	.	.
16G\	2	16gg\	.	.
16d\	.	16g\	.	.
16G\JJ	3	16gg\JJ	.	.
16D\LL	.	16bb\LL	.	.
16B\	2	16dd\	.	.
16g\	.	16g\	.	.
16B\JJ	2	16dd\JJ	.	.
=27	=27	=27	=27	=27
16GG\LL	.	16aa\LL	.	.
16D\	.	16dd\	.	.
16c\	.	16f#X\	.	.
16D\JJ	.	16dd\JJ	.	.
16GG\LL	.	16gg\LL	.	.
16D\	.	16dd\	.	.
16c\	.	16e\	.	.
16D\JJ	.	16dd\JJ	.	.
16GG\LL	.	16aa\LL	.	.
16D\	.	16dd\	.	.
16c\	.	16f#\	.	.
16D\JJ	.	16dd\JJ	.	.
=28	=28	=28	=28	=28
16GG\LL	.	16bb\LL	.	.
16D\	.	16dd\	.	.
16B\	.	16g\	.	.
16D\JJ	.	16dd\JJ	.	.
16GG\LL	.	16bb\LL	.	.
16D\	.	16dd\	.	.
16B\	.	16g\	.	.
16D\JJ	.	16dd\JJ	.	.
16GG\LL	.	16bb\LL	.	.
16D\	.	16dd\	.	.
16B\	.	16g\	.	.
16D\JJ	.	16dd\JJ	.	.
=29	=29	=29	=29	=29
16BBB\LL	.	16dd\LL	.	p
16GG\	.	16b\	4	.
16BB\	.	16d\	.	.
16GG\JJ	.	16b\JJ	.	.
16BBB\LL	.	16dd\LL	.	<
16GG\	.	16b\	.	.
16BB\	.	16B\	.	.
16GG\JJ	.	16b\JJ	.	.
16BBB\LL	.	16dd#X\LL	.	.
16FF#X\	.	16a\	.	.
16BB\	.	16f#X\	.	.
16FF#\JJ	.	16a\JJ	.	.
=30	=30	=30	=30	=30
16CC\LL	.	16ee\LL	.	.
16C\	.	16g\	.	.
16G\	.	16e\	.	.
16C\JJ	.	16g\JJ	.	.
16CC\LL	.	16ff#X\LL	.	.
16C\	.	16ee\	.	.
16G\	.	16e\	.	.
16C\JJ	.	16ee\JJ	.	.
16EE\LL	.	16gg\LL	.	.
16C\	.	16ee\	.	.
16G\	.	16e\	.	.
16C\JJ	.	16ee\JJ	.	[[
!!LO:LB:g=original
=31	=31	=31	=31	=31
16DD\LL	.	16aa\LL	.	.
16C\	.	16ff#X\	3	.
16D\	.	16a\	.	.
16C\JJ	.	16ff#\JJ	.	.
16DD\LL	.	16bb\LL	.	.
16BB\	.	16ff#\	3	.
16D\	.	16a\	.	.
16BB\JJ	.	16ff#\JJ	.	.
16DD\LL	.	16ccc\LL	.	.
16AA\	.	16ff#\	.	.
16D\	.	16a\	.	.
16AA\JJ	.	16ff#\JJ	.	.
=32	=32	=32	=32	=32
16GG\LL	.	16bb\LL	.	.
16BB\	4	16dd\	.	.
16B\	.	16g\	.	.
16BB\JJ	.	16dd\JJ	.	.
16GG\LL	.	16bb\LL	.	.
16BB\	.	16dd\	.	.
16B\	.	16g\	.	.
16BB\JJ	.	16dd\JJ	.	.
16GG\LL	.	16bb\LL	.	.
16BB\	.	16dd\	.	.
16B\	.	16g\	.	.
16BB\JJ	.	16dd\JJ	.	.
=33	=33	=33	=33	=33
!	!	!	!	!LO:DY:t=f.
16GGG\LL	.	16bb\LL	.	f
16DD\	.	16dd\	.	.
16BB\	.	16g\	.	.
16DD\JJ	.	16dd\JJ	.	.
16BBB\LL	.	16bb\LL	.	.
16GG\	.	16dd\	.	.
16D\	.	16g\	.	.
16GG\JJ	.	16dd\JJ	.	.
16DD\LL	.	16bb\LL	.	.
16BB\	.	16dd\	.	.
16G\	.	16g\	.	.
16BB\JJ	.	16dd\JJ	.	.
=34	=34	=34	=34	=34
16GG\LL	.	16ddd\LL	.	.
*	*	*	*below	*
16D\	.	16gg\	3	.
16B\	.	16g\	.	.
16D\JJ	.	16gg\JJ	.	.
16BB\LL	.	16ddd\LL	.	.
16G\	.	16gg\	.	.
16d\	.	16g\	.	.
16G\JJ	.	16gg\JJ	.	.
16D\LL	.	16bb\LL	.	.
16B\	.	16dd\	.	.
16g\	.	16g\	.	.
16B\JJ	2	16dd\JJ	.	.
=35	=35	=35	=35	=35
16GG\LL	.	16aa\LL	.	.
16D\	.	16dd\	.	.
16c\	.	16f#X\	.	.
16D\JJ	.	16dd\JJ	.	.
16GG\LL	.	16gg\LL	.	.
*	*	*	*above	*
16D\	.	16dd\	3	.
16c\	.	16e\	.	.
16D\JJ	.	16dd\JJ	.	.
16GG\LL	.	16aa\LL	.	.
16D\	.	16dd\	2	.
16c\	.	16f#\	.	.
16D\JJ	.	16dd\JJ	.	.
!!LO:PB:g=original
=36	=36	=36	=36	=36
16GG\LL	.	16bb\LL	.	.
16D\	.	16dd\	.	.
16B\	.	16g\	.	.
16D\JJ	.	16dd\JJ	.	.
16GG\LL	.	16bb\LL	.	.
16D\	.	16dd\	.	.
16B\	.	16g\	.	.
16D\JJ	.	16dd\JJ	.	.
16GG\LL	.	16bb\LL	.	.
16D\	.	16dd\	.	.
16B\	.	16g\	.	.
16D\JJ	.	16dd\JJ	.	.
=37	=37	=37	=37	=37
16BBB\LL	.	16dd\LL	.	.
16GG\	.	16b\	4	.
16BB\	.	16d\	.	p
16GG\JJ	.	16b\JJ	.	.
16BBB\LL	.	16dd\LL	.	.
16GG\	.	16b\	.	.
16BB\	.	16B\	.	.
!	!	!LO:TX:b:i:t=e poco sostenuto	!	!
16GG\JJ	.	16b\JJ	.	.
16BBB\LL	.	16dd#X\LL	.	.
16FF#X\	.	16a\	.	.
16BB\	.	16f#X\	.	.
16FF#\JJ	.	16a\JJ	.	.
=38	=38	=38	=38	=38
16CC\LL	.	16ee\LL	.	.
16C\	.	16g\	.	.
16G\	.	16e\	.	.
16C\JJ	.	16g\JJ	.	.
16CC\LL	.	16ff#X\LL	.	.
16C\	.	16ee\	.	.
16G\	.	16e\	.	.
16C\JJ	.	16ee\JJ	.	.
16EE\LL	.	16gg\LL	.	.
16C\	.	16ee\	.	.
16G\	.	16e\	.	.
16C\JJ	.	16ee\JJ	.	.
=39	=39	=39	=39	=39
16DD\LL	.	16aa\LL	.	.
16AA\	.	16cc\	.	.
16D\	.	16f#X\	.	.
16AA\JJ	.	16cc\JJ	.	.
16DD\LL	.	16bb\LL	.	.
16AA\	.	16cc\	.	.
16D\	.	16f#\	.	.
16AA\JJ	.	16cc\JJ	.	.
16DD\LL	.	16aa\LL	.	.
16AA\	.	16cc\	.	.
16D\	.	16f#\	.	.
16AA\JJ	.	16cc\JJ	.	.
=40	=40	=40	=40	=40
16GG\LL	.	16gg\LL	.	.
16D\	.	16b\	.	.
16B\	.	16d\	.	.
16D\JJ	.	16b\JJ	.	.
16GG\LL	.	16gg\LL	.	.
16D\	.	16b\	.	.
16B\	.	16d\	.	.
16D\JJ	.	16b\JJ	.	.
16GG\LL	.	16gg\LL	.	.
16D\	.	16b\	.	.
16B\	.	16d\	.	.
16D\JJ	.	16b\JJ	.	.
!!LO:LB:g=original
=41	=41	=41	=41	=41
16EE-X\LL	.	16gg\LL	.	.
16GG\	.	16cc\	3	<
16G\	.	16c\	.	.
16GG\JJ	.	16cc\JJ	.	.
16EE-\LL	.	16ff#X\LL	.	.
16GG\	.	16cc\	.	.
16G\	.	16c\	.	.
16GG\JJ	.	16cc\JJ	.	.
16EE-\LL	.	16gg\LL	.	.
16GG\	.	16cc\	.	.
16G\	.	16c\	.	.
16GG\JJ	.	16cc\JJ	.	.
=42	=42	=42	=42	=42
16DD\LL	.	16bb-X\LL	.	.
16GG\	.	16dd\	.	.
16G\	.	16g\	.	.
16GG\JJ	.	16dd\JJ	.	[
16DD\LL	.	16bb-\LL	.	.
16GG\	.	16dd\	.	>
16G\	.	16g\	.	.
16GG\JJ	.	16dd\JJ	.	.
16DD\LL	.	16dd\LL	.	.
16GG\	.	16b-X\	.	.
16G\	.	16d\	.	]
16GG\JJ	.	16b-\JJ	.	.
=43	=43	=43	=43	=43
16DD\LL	.	16cc#X\LL	.	.
16AA\	.	16a\	3	.
16G\	.	16A\	.	.
16AA\JJ	.	16a\JJ	.	.
16DD\LL	.	16dd\LL	.	.
16AA\	.	16a\	.	.
16G\	.	16Bn\	.	.
16AA\JJ	.	16a\JJ	.	.
16DD\LL	.	16ee\LL	.	.
16AA\	.	16a\	2	.
16G\	.	16c#X\	.	.
16AA\JJ	.	16a\JJ	.	.
=44	=44	=44	=44	=44
16DD\LL	.	16ff\LL	.	.
16AA\	2	16a\	.	.
16F\	.	16d\	.	.
16AA\JJ	.	16a\JJ	.	.
16CC#X\LL	.	16ff\LL	.	.
16AA\	.	16a\	.	.
16F\	.	16d\	.	.
16AA\JJ	.	16a\JJ	.	.
16DD\LL	.	16ff\LL	.	.
16AA\	.	16a\	.	.
16F\	.	16d\	.	.
16AA\JJ	.	16a\JJ	.	.
=45	=45	=45	=45	=45
16CC\LL	.	16ff\LL	.	.
16FF\	.	16a\	.	.
!	!	!	!	!LO:HP:t=cresc
16F\	.	16f\	.	<
16FF\JJ	.	16a\JJ	.	.
16CC\LL	.	16ee\LL	.	.
16FF\	.	16a\	.	.
16F\	.	16f\	.	.
16FF\JJ	.	16a\JJ	.	.
16DD-X\LL	.	16ff\LL	.	.
16FF\	.	16b-X\	.	.
16F\	.	16f\	.	.
16FF\JJ	.	16b-\JJ	.	.
!!LO:LB:g=original
=46	=46	=46	=46	=46
16CC\LL	.	16aa-X\LL	.	.
16FF\	.	16cc\	.	.
16F\	.	16f\	.	.
16FF\JJ	.	16cc\JJ	.	.
16CC\LL	.	16aa-\LL	.	.
16FF\	.	16cc\	.	.
16F\	.	16f\	.	.
16FF\JJ	.	16cc\JJ	.	.
16CC\LL	.	16cc\LL	.	.
16FF\	.	16a-X\	.	.
16F\	.	16c\	.	.
16FF\JJ	.	16a-\JJ	.	.
=47	=47	=47	=47	=47
16CC\LL	.	16b\LL	.	.
16GG\	.	16g\	.	.
16F\	.	16G\	.	.
16GG\JJ	.	16g\JJ	.	.
16CC\LL	.	16cc\LL	.	.
16GG\	.	16g\	.	.
16F\	.	16A\	.	.
16GG\JJ	.	16g\JJ	.	.
16CC\LL	.	16dd\LL	.	.
16GG\	.	16g\	2	.
16F\	.	16B\	.	.
16GG\JJ	.	16g\JJ	.	.
=48	=48	=48	=48	=48
16CC\LL	.	16ee-X\LL	.	.
16GG\	2	16g\	.	.
16E-X\	.	16c\	.	>
16GG\JJ	.	16g\JJ	.	.
16BBB\LL	.	16ee-\LL	.	.
16GG\	.	16g\	.	.
16E-\	.	16c\	.	.
16GG\JJ	.	16g\JJ	.	.
16CC\LL	.	16ee-\LL	.	]
16GG\	.	16g\	.	.
16E-\	.	16c\	.	.
16GG\JJ	.	16g\JJ	.	.
=49	=49	=49	=49	=49
16AAA-X\LL	.	16ee-X\LL	.	pp
16AA-X\	.	16cc\	4	.
16E-X\	.	16c\	.	.
16AA-\JJ	.	16cc\JJ	.	.
16AA-\LL	.	16ee-\LL	.	.
16E-\	.	16cc\	3	.
16c\	.	16e-X\	.	.
16E-\JJ	.	16cc\JJ	.	.
16AA-\LL	.	16dd\LL	.	.
16E-\	.	16cc\	.	.
16c\	.	16e-\	.	.
16E-\JJ	.	16cc\JJ	.	.
=50	=50	=50	=50	=50
16AA-X\LL	.	16ee-X\LL	.	.
16E-X\	.	16cc\	.	.
16c\	.	16e-X\	.	.
16E-\JJ	.	16cc\JJ	.	.
16AA-\LL	.	16ff\LL	.	.
16E-\	.	16cc\	.	.
16c\	.	16e-\	.	.
16E-\JJ	.	16cc\JJ	.	.
16GG\LL	.	16gg\LL	.	.
16C\	.	16ee-\	.	.
16c\	.	16e-\	.	.
16C\JJ	.	16ee-\JJ	.	.
!!LO:LB:g=original
=51	=51	=51	=51	=51
16FF\LL	.	16aa-X\LL	.	.
16D-X\	2	16dd-X\	2	.
16A-X\	.	16f\	.	.
16D-\JJ	.	16dd-\JJ	.	.
16EE\LL	.	16gg\LL	.	.
16D-\	.	16dd-\	.	.
16B-X\	.	16g\	.	.
16D-\JJ	.	16dd-\JJ	.	.
16FF\LL	.	16ff\LL	.	.
16D-\	.	16dd-\	.	.
16A-\	.	16a-X\	.	.
16D-\JJ	.	16dd-\JJ	.	.
=52	=52	=52	=52	=52
16GG\LL	.	16ee-X\LL	.	.
16E-X\	.	16b-X\	3	.
16G\	.	16d-X\	.	.
16E-\JJ	.	16b-\JJ	.	.
16GG\LL	.	16ee-\LL	.	.
16E-\	.	16b-\	.	.
16G\	.	16d-\	.	.
16E-\JJ	.	16b-\JJ	.	.
16GG\LL	.	16ee-\LL	.	.
16E-\	.	16b-\	.	.
16G\	.	16d-\	.	.
16E-\JJ	.	16b-\JJ	.	.
=53	=53	=53	=53	=53
16AA\LL	.	16ee-X\LL	.	.
16E-X\	.	16cc\	.	.
16c\	.	16c\	.	.
16E-\JJ	.	16cc\JJ	.	.
16AA\LL	.	16ee-\LL	.	.
16E-\	.	16cc\	3	.
16c\	.	16e-X\	.	.
16E-\JJ	.	16cc\JJ	.	.
!	!	!	!	!LO:HP:t=molto cresc
16AA\LL	.	16dd\LL	4	<
16E-\	.	16cc\	.	.
16c\	.	16e-\	.	.
16E-\JJ	.	16cc\JJ	.	.
=54	=54	=54	=54	=54
16AA-X\LL	.	16ee-X\LL	.	.
16E-X\	.	16cc\	.	.
16c\	.	16e-X\	.	.
16E-\JJ	.	16cc\JJ	.	.
16AA-\LL	.	16ff\LL	.	.
16E-\	.	16cc\	.	.
16c\	.	16e-\	.	.
16E-\JJ	.	16cc\JJ	.	.
16GG\LL	.	16gg\LL	.	.
16C\	.	16ee-\	.	.
16c\	.	16e-\	.	.
16C\JJ	.	16ee-\JJ	.	.
=55	=55	=55	=55	=55
16FF#X\LL	.	16aa\LL	.	.
16D\	2	16dd\	.	.
16A\	.	16cc\	.	.
16D\JJ	.	16dd\JJ	.	.
16DD\LL	.	16bb\LL	.	.
16D\	.	16dd\	.	.
16F#X\	.	16cc\	.	.
16D\JJ	.	16dd\JJ	.	.
16DD\LL	.	16aa\LL	.	.
16D\	.	16dd\	.	.
16F#\	.	16cc\	.	.
16D\JJ	.	16dd\JJ	.	.
!!LO:LB:g=original
=56	=56	=56	=56	=56
16GG\LL	.	16gg\LL	.	.
16D\	.	16dd\	.	.
16G\	.	16b\	.	>
16D\JJ	.	16dd\JJ	.	.
16GG\LL	.	16gg\LL	.	.
16D\	.	16dd\	.	.
16G\	.	16b\	.	.
16D\JJ	.	16dd\JJ	.	.
16GG\LL	.	16ff\LL	.	.
16D\	.	16b\	.	.
16G\	.	16g\	.	]
16D\JJ	.	16b\JJ	.	.
=57	=57	=57	=57	=57
16CC\LL	.	16ee\LL	.	.
16GG\	.	16cc\	3	.
16G\	.	16g\	.	p
16GG\JJ	.	16cc\JJ	.	.
16CC\LL	.	16ee\LL	.	.
16GG\	.	16cc\	.	.
16G\	.	16g\	.	.
16GG\JJ	.	16cc\JJ	.	.
16CC\LL	.	16ee\LL	.	.
16GG\	.	16cc\	.	.
16G\	.	16g\	.	.
16GG\JJ	.	16cc\JJ	.	.
=58	=58	=58	=58	=58
16CC\LL	.	16ee\LL	.	.
16GG\	.	16cc\	4	.
16E\	.	16c\	.	.
16GG\JJ	.	16cc\JJ	.	.
16CC\LL	.	16dd\LL	.	.
16GG\	.	16b\	.	.
16F\	.	16d\	.	.
16GG\JJ	.	16b\JJ	.	.
16CC\LL	.	16ee\LL	.	.
16GG\	.	16b-X\	.	.
16G\	.	16c\	.	.
16GG\JJ	.	16b-\JJ	.	.
=59	=59	=59	=59	=59
16FF\LL	.	16gg\LL	.	.
16D\	.	16a\	2	.
16A\	.	16d\	.	.
16D\JJ	.	16a\JJ	.	.
16FF\LL	.	16ff\LL	.	.
16D\	.	16a\	.	.
16A\	.	16d\	.	.
16D\JJ	.	16a\JJ	.	.
16FF#X\LL	.	16ee\LL	.	.
16D\	.	16a\	3	.
16A\	.	16c\	.	.
16D\JJ	.	16a\JJ	.	.
=60	=60	=60	=60	=60
16GG\LL	.	16dd\LL	.	.
16D\	.	16f\	.	.
16G\	.	16B\	.	.
16D\JJ	.	16f\JJ	.	.
16GG\LL	.	16dd\LL	.	.
16D\	.	16f\	.	.
16G\	.	16B\	.	.
16D\JJ	.	16f\JJ	.	.
16GG\LL	.	16gg\LL	.	.
16F\	.	16b\	2	.
16B\	.	16d\	.	.
16F\JJ	.	16b\JJ	.	.
!!LO:LB:g=original
=61	=61	=61	=61	=61
16CC\LL	.	16ee\LL	.	.
16GG\	3	16cc\	3	.
16G\	.	16e\	.	.
16GG\JJ	.	16cc\JJ	.	.
16CC\LL	.	16cc\LL	.	.
16GG\	.	16g\	.	.
16G\	.	16e\	.	.
16GG\JJ	.	16g\JJ	.	.
16CC\LL	.	16ee\LL	.	.
16GG\	.	16cc\	.	.
16G\	.	16c\	.	.
16GG\JJ	.	16cc\JJ	.	.
=62	=62	=62	=62	=62
16GGG\LL	.	16ee\LL	.	.
16EE\	.	16b\	.	.
16BB\	.	16e\	.	.
16EE\JJ	.	16b\JJ	.	.
16GGG\LL	.	16b\LL	.	.
16EE\	.	16g\	.	.
16BB\	.	16e\	.	.
16EE\JJ	.	16g\JJ	.	.
16GGG\LL	.	16ee\LL	.	.
16EE\	.	16b\	.	.
16BB\	.	16B\	.	.
16EE\JJ	.	16b\JJ	3	.
=63	=63	=63	=63	=63
16FF\LL	.	16a\LL	.	.
16C\	3	16f\	.	.
16A\	.	16c\	.	.
16C\JJ	.	16f\JJ	.	.
16FF\LL	.	16b\LL	.	.
16D\	.	16f\	.	.
16G#X\	.	16B\	.	.
16D\JJ	.	16f\JJ	.	.
16FF\LL	.	16cc\LL	.	.
16C\	.	16f\	.	.
16A\	.	16A\	.	.
16C\JJ	.	16f\JJ	.	.
=64	=64	=64	=64	=64
16BBB\LL	.	16dd\LL	.	.
16GG\	.	16f\	.	.
16D\	.	16G\	.	.
16GG\JJ	.	16f\JJ	.	.
16BBB\LL	.	16dd\LL	.	.
16GG\	.	16f\	.	.
16D\	.	16G\	.	.
16GG\JJ	.	16f\JJ	.	.
16DD\LL	.	16g\LL	.	.
16BB\	.	16f\	.	.
16D\	.	16G\	.	.
16BB\JJ	.	16f\JJ	.	.
=65	=65	=65	=65	=65
16CC\LL	.	16ee\LL	.	.
16GG\	3	16g\	.	.
16G\	.	16c\	.	.
16GG\JJ	.	16g\JJ	.	.
16CC\LL	.	16ee\LL	.	.
16GG\	.	16g\	.	.
16G\	.	16c\	.	.
16GG\JJ	.	16g\JJ	.	.
16CC\LL	.	16ee\LL	.	.
16GG\	.	16g\	.	.
16G\	.	16c\	.	.
16GG\JJ	.	16g\JJ	.	.
!!LO:LB:g=original
=66	=66	=66	=66	=66
16CC\LL	.	16ee\LL	.	<
16GG\	.	16cc\	.	.
16E\	.	16c\	.	.
16GG\JJ	.	16cc\JJ	.	.
16CC\LL	.	16dd\LL	.	.
16GG\	.	16b\	.	.
16F\	.	16d\	.	.
16GG\JJ	.	16b\JJ	.	.
16CC\LL	.	16ee\LL	.	.
16GG\	.	16b-X\	.	.
16G\	.	16c\	.	.
16GG\JJ	.	16b-\JJ	.	[[
=67	=67	=67	=67	=67
16FF\LL	.	16gg\LL	.	.
16D\	.	16a\	.	.
16A\	.	16d\	.	>
16D\JJ	.	16a\JJ	.	.
16FF\LL	.	16ff\LL	.	.
16D\	.	16a\	.	.
16A\	.	16d\	.	.
16D\JJ	.	16a\JJ	.	.
16FF#X\LL	.	16ee\LL	.	.
16D\	.	16a\	3	.
16A\	.	16c\	.	.
16D\JJ	.	16a\JJ	.	]]
=68	=68	=68	=68	=68
16GG\LL	.	16dd\LL	.	.
16D\	.	16f\	.	.
16G\	.	16B\	.	.
16D\JJ	.	16f\JJ	.	.
16GG\LL	.	16dd\LL	.	.
16D\	.	16f\	.	.
16G\	.	16B\	.	.
16D\JJ	.	16f\JJ	.	.
16GG\LL	.	16gg\LL	.	.
16F\	.	16b\	.	.
16B\	.	16d\	.	.
16F\JJ	.	16b\JJ	.	.
=69	=69	=69	=69	=69
16AAA\LL	.	16cc\LL	.	.
16EE\	.	16a\	4	.
16E\	.	16A\	.	p
16EE\JJ	.	16a\JJ	.	.
16AAA\LL	.	16cc\LL	.	.
16EE\	.	16a\	.	.
16E\	.	16A\	.	.
16EE\JJ	.	16a\JJ	.	.
16AAA\LL	.	16cc#X\LL	.	.
16EE\	.	16g\	.	.
!	!	!LO:TX:b:i:t=poco sostenuto.	!	!
16E\	.	16A\	.	.
16EE\JJ	.	16g\JJ	.	.
=70	=70	=70	=70	=70
16FF\LL	.	16dd\LL	.	.
16D\	2	16f\	.	.
16A\	.	16d\	.	.
16D\JJ	.	16f\JJ	.	.
16EE\LL	.	16ee\LL	.	.
16AA\	3	16a\	2	.
16G\	.	16c#X\	.	.
16AA\JJ	.	16a\JJ	.	.
16DD\LL	.	16ff\LL	.	.
16AA\	.	16a\	.	.
16F\	.	16d\	.	.
16AA\JJ	.	16a\JJ	.	.
!!LO:PB:g=original
=71	=71	=71	=71	=71
16GG\LL	.	16ee\LL	.	.
16F\	.	16g\	.	.
16G\	.	16B\	.	.
16F\JJ	.	16g\JJ	.	.
16GG\LL	.	16ee\LL	.	.
16F\	.	16g\	.	.
16G\	.	16B\	.	.
16F\JJ	.	16g\JJ	.	.
16GG\LL	.	16dd\LL	.	.
16F\	.	16g\	.	.
16G\	.	16B\	.	.
16F\JJ	.	16g\JJ	.	.
=72	=72	=72	=72	=72
16CC\LL	.	16cc\LL	.	.
16GG\	.	16g\	.	.
16E\	.	16c\	.	.
16GG\JJ	.	16g\JJ	.	.
16CC\LL	.	16cc\LL	.	.
16GG\	.	16g\	.	.
16E\	.	16c\	.	.
16GG\JJ	.	16g\JJ	.	.
16CC\LL	.	16cc\LL	.	.
16GG\	.	16e\	.	.
16E\	.	16G\	.	.
16GG\JJ	.	16e\JJ	.	.
=73	=73	=73	=73	=73
16AAA-X\LL	.	16cc\LL	.	.
16CC\	.	16e-X\	.	.
16C\	.	16A-X\	.	pp
16CC\JJ	.	16e-\JJ	.	.
16AAA-\LL	.	16cc\LL	.	.
16CC\	.	16e-\	.	.
16C\	.	16A-\	.	.
16CC\JJ	.	16e-\JJ	.	.
16AAA-\LL	.	16cc\LL	.	.
16EE-X\	2	16e-\	.	.
16C\	.	16A-\	.	.
16EE-\JJ	.	16e-\JJ	.	.
=74	=74	=74	=74	=74
16FFF\LL	.	16dd-X\LL	.	.
16DD-X\	.	16f\	.	.
16AA-X\	.	16A-X\	.	.
16DD-\JJ	.	16f\JJ	.	.
16FFF\LL	.	16ff\LL	.	.
16DD-\	.	16a-X\	.	.
16AA-\	.	16d-X\	.	.
16DD-\JJ	.	16a-\JJ	.	.
16FFF\LL	.	16cc\LL	.	.
16DD-\	.	16f\	.	.
16AA-\	.	16d-\	.	.
16DD-\JJ	.	16f\JJ	.	.
=75	=75	=75	=75	=75
16GGG\LL	.	16b\LL	.	.
16DDn\	.	16f\	3	.
16GG\	.	16G\	.	.
16DD\JJ	.	16f\JJ	.	.
16GGG\LL	.	16cc\LL	.	.
16DD\	.	16f\	2	.
16AA\	.	16dn\	.	.
16DD\JJ	.	16f\JJ	.	.
16GGG\LL	.	16dd\LL	.	.
16GG\	.	16f\	.	.
16BB\	.	16d\	.	.
16GG\JJ	.	16f\JJ	.	.
!!LO:LB:g=original
=76	=76	=76	=76	=76
16CC\LL	.	16eeLL 16e\	.	.
16EE\	.	16cc\	.	.
16C\	.	16c\	.	.
16EE\JJ	.	16cc\JJ	.	.
16CC\LL	.	16ee\LL	.	.
16EE\	.	16cc\	.	.
16C\	.	16c\	.	.
16EE\JJ	.	16cc\JJ	.	.
16CC\LL	.	16ee\LL	.	.
16EE\	.	16cc\	.	.
16C\	.	16c\	.	.
16EE\JJ	.	16cc\JJ	.	.
=77	=77	=77	=77	=77
!	!	!	!	!LO:DY:t=mf.
16CC\LL	.	16gg\LL	.	mf
16EE\	.	16cc\	.	.
16C\	.	16e\	.	.
16EE\JJ	.	16cc\JJ	.	.
16C\LL	.	16aa\LL	.	.
16E\	.	16cc\	.	.
16c\	.	16e\	.	.
16E\JJ	.	16cc\JJ	.	.
16CC\LL	.	16gg\LL	.	.
16EE\	.	16cc\	.	.
16C\	.	16e\	.	.
16EE\JJ	.	16cc\JJ	.	.
=78	=78	=78	=78	=78
16FF\LL	.	16gg\LL	.	.
16AA\	4	16cc\	3	.
16A\	.	16c\	.	.
16AA\JJ	.	16cc\JJ	.	.
16FF\LL	.	16ff\LL	.	.
16AA\	.	16cc\	.	.
16A\	.	16c\	.	.
16AA\JJ	.	16cc\JJ	.	.
16FF\LL	.	16cc\LL	3	.
16AA\	.	16a\	.	.
16A\	.	16f\	.	.
16AA\JJ	.	16a\JJ	.	.
=79	=79	=79	=79	=79
16GG\LL	.	16b\LL	.	.
16D\	.	16f\	.	.
16G\	.	16d\	.	.
16D\JJ	.	16f\JJ	.	.
!	!	!LO:TX:b:t=dim_:problem=dynamics with extention lines	!	!LO:HP:t=dim_
16GG\LL	.	16a\LL	.	>
16D\	.	16f\	.	.
16G\	.	16c#X\	.	.
16D\JJ	.	16f\JJ	.	.
16DD\LL	.	16b\LL	.	.
16GG\	.	16f\	.	.
16D\	.	16d\	.	.
16GG\JJ	.	16f\JJ	.	.
=80	=80	=80	=80	=80
16CC\LL	.	16cc\LL	.	.
16GG\	.	16e\	.	.
16E\	.	16G\	.	.
16GG\JJ	.	16e\JJ	.	.
16CC\LL	.	16cc\LL	.	.
16GG\	.	16e\	.	.
16E\	.	16G\	.	.
16GG\JJ	.	16e\JJ	.	.
16CC\LL	.	16cc\LL	.	.
16GG\	.	16e\	.	.
16E\	.	16G\	.	.
16GG\JJ	.	16e\JJ	.	]
!!LO:LB:g=original
=81	=81	=81	=81	=81
16AAA-X\LL	.	16cc\LL	.	mf
16CC\	.	16e-X\	.	.
16C\	.	16A-X\	.	.
16CC\JJ	.	16e-\JJ	.	.
16AAA-\LL	.	16cc\LL	.	.
16CC\	.	16e-\	.	.
16C\	.	16A-\	.	.
16CC\JJ	.	16e-\JJ	.	.
16AAA-\LL	.	16cc\LL	.	.
16EE-X\	.	16e-\	.	.
16C\	.	16A-\	.	.
16EE-\JJ	.	16e-\JJ	.	.
=82	=82	=82	=82	=82
16FFF\LL	.	16dd-X\LL	.	.
16DD-X\	.	16f\	.	.
16AA-X\	.	16A-X\	.	.
16DD-\JJ	.	16f\JJ	.	.
16FFF\LL	.	16aa-X\LL	.	.
16DD-\	.	16ff\	.	.
16AA-\	.	16f\	.	.
16DD-\JJ	.	16ff\JJ	.	.
16FFF\LL	.	16cc\LL	5	.
16DD-\	.	16a-X\	.	.
16AA-\	.	16f\	.	.
16DD-\JJ	.	16a-\JJ	.	.
=83	=83	=83	=83	=83
16GGG\LL	.	16b\LL	5	.
16DDn\	.	16f\	.	.
16GG\	.	16d\	.	.
16DD\JJ	.	16f\JJ	.	.
16GGG\LL	.	16cc\LL	.	.
16DD\	.	16f\	.	.
16AA\	.	16d\	.	.
16DD\JJ	.	16f\JJ	.	.
16GGG\LL	.	16dd\LL	.	.
16GG\	.	16f\	.	.
16BB\	.	16d\	.	.
16GG\JJ	.	16f\JJ	.	.
=84	=84	=84	=84	=84
16CC\LL	.	16eeLL 16e\	.	.
16EE\	.	16cc\	.	.
16C\	.	16c\	.	.
16EE\JJ	.	16cc\JJ	.	.
16CC\LL	.	16ee\LL	.	.
16EE\	.	16cc\	.	.
16C\	.	16c\	.	.
16EE\JJ	.	16cc\JJ	.	.
16CC\LL	.	16ee\LL	.	.
16EE\	.	16cc\	.	.
16C\	.	16c\	.	.
16EE\JJ	.	16cc\JJ	.	.
=85	=85	=85	=85	=85
16CC\LL	.	16gg\LL	.	.
16EE\	.	16cc\	.	.
16C\	.	16e\	.	>
16EE\JJ	.	16cc\JJ	.	.
16CC\LL	.	16ccc\LL	.	.
16EE\	.	16gg\	.	.
16C\	.	16g\	.	.
16EE\JJ	.	16gg\JJ	.	.
16C\LL	.	16bb-X\LL	.	.
16E\	.	16cc\	.	.
16c\	.	16g\	.	.
16E\JJ	.	16cc\JJ	.	.
!!LO:LB:g=original
=86	=86	=86	=86	=86
16FF\LL	.	16aa-X\LL	.	.
16C\	.	16cc\	.	.
16c\	.	16f\	.	.
16C\JJ	.	16cc\JJ	.	.
16FF\LL	.	16ff\LL	.	.
16C\	.	16cc\	3	.
16A-X\	.	16f\	.	.
16C\JJ	.	16cc\JJ	.	.
16FF\LL	.	16cc\LL	4	.
16C\	.	16a-X\	.	.
16c\	.	16f\	.	.
16C\JJ	.	16a-\JJ	.	]]
=87	=87	=87	=87	=87
16GG\LL	.	16b\LL	.	.
16F\	.	16g\	.	.
16G\	.	16d\	.	.
16F\JJ	.	16g\JJ	.	.
!	!	!	!	!LO:HP:t=poco a poco molto crescendo
16GG\LL	.	16a\LL	.	<
16E\	.	16g\	.	.
16G\	.	16c#X\	.	.
16E\JJ	.	16g\JJ	.	.
16GG\LL	.	16b\LL	.	.
16F\	.	16g\	.	.
16G\	.	16d\	.	.
16F\JJ	.	16g\JJ	.	.
=88	=88	=88	=88	=88
16GG\LL	.	16cc\LL	.	.
16E\	.	16g\	.	.
16G\	.	16c\	.	.
16E\JJ	.	16g\JJ	.	.
16GG\LL	.	16cc\LL	.	.
16E\	.	16g\	.	.
16G\	.	16c\	.	.
16E\JJ	.	16g\JJ	.	.
16GGG\LL	.	16cc#X\LL	.	.
16EE\	.	16g\	.	.
16GGG\	.	16G\	.	.
16EE\JJ	.	16g\JJ	.	.
=89	=89	=89	=89	=89
16GG\LL	.	16dd\LL	.	.
16F\	.	16g\	.	.
16G\	.	16B\	.	.
16F\JJ	.	16g\JJ	.	.
16GG\LL	.	16dd\LL	.	.
16F\	.	16g\	.	.
16G\	.	16B\	.	.
16F\JJ	.	16g\JJ	.	.
16GGG/LL	.	16dd#X\LL	.	.
16GG/	.	16g\	.	.
16GGG/	.	16B\	.	.
16GG/JJ	.	16g\JJ	.	.
=90	=90	=90	=90	=90
16GG\LL	.	16ee\LL	.	.
16E\	.	16g\	.	.
16G\	.	16c\	.	.
16E\JJ	.	16g\JJ	.	.
16GG\LL	.	16dd#X\LL	.	.
16E\	.	16g\	.	.
16G\	.	16c\	.	.
16E\JJ	.	16g\JJ	.	.
16GGG\LL	.	16ee\LL	.	.
16GG\	.	16g\	.	.
16GGG\	.	16c\	.	.
16GG\JJ	.	16g\JJ	.	.
!!LO:LB:g=original
=91	=91	=91	=91	=91
16GG\LL	.	16ff\LL	.	.
16C\	.	16cc\	.	.
16A\	.	16c\	.	.
16C\JJ	.	16cc\JJ	.	<
16GG\LL	.	16ff\LL	.	.
16C\	.	16cc\	.	.
16A\	.	16c\	.	.
16C\JJ	.	16cc\JJ	.	.
16GG\LL	.	16ff#X\LL	.	.
16C\	.	16cc\	2	.
16A-X\	.	16e-X\	.	.
16C\JJ	.	16cc\JJ	.	.
=92	=92	=92	=92	=92
16GG\LL	.	16gg\LL	.	.
16C\	.	16cc\	.	.
16G\	.	16e\	.	.
16C\JJ	.	16cc\JJ	.	.
16GG\LL	.	16gg\LL	.	.
16C\	.	16cc\	.	.
16G\	.	16e\	.	.
16C\JJ	.	16cc\JJ	.	.
16GG\LL	.	16gg#X\LL	.	.
16E\	.	16cc\	.	.
16c\	.	16e\	.	.
16E\JJ	.	16cc\JJ	.	.
=93	=93	=93	=93	=93
16GG\LL	.	16aa\LL	.	.
16D\	2	16cc\	.	.
16A\	.	16f#X\	.	.
16D\JJ	.	16cc\JJ	.	.
16GG\LL	.	16gg#X\LL	.	.
16D\	.	16cc\	.	.
16A\	.	16f#\	.	.
16D\JJ	.	16cc\JJ	.	.
16GG\LL	.	16aa\LL	.	.
16D\	.	16cc\	.	.
16A\	.	16f#\	.	.
16D\JJ	.	16cc\JJ	.	.
=94	=94	=94	=94	=94
16GG\LL	.	16bbLL 16b\	.	.
16D\	.	16dd\	.	.
16G\	.	16fn\	.	.
16D\JJ	.	16dd\JJ	.	.
16GG\LL	.	16aa\LL	.	.
16D\	.	16dd\	.	.
16G\	.	16f\	.	.
16D\JJ	.	16dd\JJ	.	.
16GGG\LL	.	16bb\LL	.	.
16GG\	.	16ff\	.	[
16D\	.	16g\	.	.
16GG\JJ	.	16ff\JJ	.	.
=95	=95	=95	=95	=95
16CC\LL	.	16ccc\LL	.	.
16GG\	.	16ee\	.	.
!	!	!	!	!LO:DY:t=ff.
16E\	.	16g\	.	ff
16GG\JJ	.	16ee\JJ	.	.
16GG\LL	.	16eee\LL	.	.
16E\	2	16gg\	2	.
16c\	.	16cc\	.	.
16E\JJ	.	16gg\JJ	3	.
16C\LL	.	16ccc\LL	.	.
16E\	.	16ee\	.	.
16c\	.	16g\	.	.
16E\JJ	.	16ee\JJ	.	.
!!LO:LB:g=original
=96	=96	=96	=96	=96
16FF\LL	.	16aa-X\LL	.	.
16C\	.	16ff\	.	.
16c\	.	16f\	.	.
16C\JJ	.	16ff\JJ	.	.
16FF\LL	.	16ccc\LL	.	.
16C\	.	16ff\	.	.
16c\	.	16a-X\	.	.
16C\JJ	.	16ff\JJ	.	.
16FF\LL	.	16aa-\LL	.	.
16C\	.	16cc\	.	.
16c\	.	16f\	.	.
16C\JJ	.	16cc\JJ	3	.
=97	=97	=97	=97	=97
16EE\LL	.	16gg\LL	.	.
16C\	.	16cc\	.	.
16E\	.	16g\	.	.
16C\JJ	.	16cc\JJ	.	.
16CC\LL	.	16ccc\LL	.	.
16GG\	.	16ee\	.	.
16E\	.	16g\	.	.
16GG\JJ	.	16ee\JJ	.	.
16EE\LL	.	16gg\LL	.	.
16C\	.	16cc\	.	.
16G\	.	16g\	.	.
16C\JJ	.	16cc\JJ	.	.
=98	=98	=98	=98	=98
16GG\LL	.	16ee\LL	.	.
16F\	.	16g\	.	.
16G\	.	16B\	.	.
16F\JJ	.	16g\JJ	.	.
16GG\LL	.	16gg\LL	.	.
16F\	.	16b\	.	.
16G\	.	16g\	.	.
16F\JJ	.	16b\JJ	.	.
16GG\LL	.	16dd\LL	.	.
16F\	.	16g\	.	.
16G\	.	16B\	.	.
16F\JJ	.	16g\JJ	.	.
=99	=99	=99	=99	=99
16EE\LL	.	16cc\LL	.	.
16GG\	.	16g\	2	.
16G\	.	16c\	.	.
16GG\JJ	.	16g\JJ	.	.
16CC\LL	.	16ee\LL	.	.
16GG\	.	16g\	2	.
16E\	.	16c\	.	.
16GG\JJ	.	16g\JJ	.	.
16EE\LL	.	16cc\LL	.	.
16GG\	.	16g\	.	.
16E\	.	16c\	.	.
16GG\JJ	.	16g\JJ	.	.
=100	=100	=100	=100	=100
16FFF\LL	.	16a-X\LL	4	.
16CC\	3	16f\	.	.
16C\	.	16c\	.	.
16CC\JJ	.	16f\JJ	.	.
16FFF\LL	.	16cc\LL	.	.
16CC\	.	16f\	.	.
16AA-X\	.	16c\	.	.
16CC\JJ	.	16f\JJ	.	.
16FFF\LL	.	16a-\LL	5	.
16CC\	.	16c\	.	.
16C\	.	16F\	.	.
16CC\JJ	.	16c\JJ	.	.
!!LO:LB:g=original
=101	=101	=101	=101	=101
16GGG\LL	.	16g\LL	.	.
16EE\	.	16c\	.	.
16C\	.	16E\	.	.
16EE\JJ	.	16c\JJ	.	.
16GGG\LL	.	16cc\LL	.	.
16EE\	.	16e\	.	.
16C\	.	16G\	.	.
16EE\JJ	.	16e\JJ	.	.
16GGG\LL	.	16g\LL	.	.
16EE\	.	16c\	.	.
16C\	.	16E\	.	.
16EE\JJ	.	16c\JJ	.	.
=102	=102	=102	=102	=102
16GGG\LL	.	16e</LL	.	.
16FF\	.	16B</	.	.
16GG\	.	16G</	.	.
16FF\JJ	.	16B</JJ	.	.
16GGG\LL	.	16g</LL	.	.
16FF\	.	16B</	.	.
16GG\	.	16G</	.	.
16FF\JJ	.	16B</JJ	.	.
16GGG\LL	.	16d</LL	.	.
16FF\	.	16B</	.	.
16GG\	.	16G</	.	.
16FF\JJ	.	16B</JJ	.	.
=103	=103	=103	=103	=103
4EE 4GGG 4CCC\	.	4c< 4G< 4E< 4C</	.	ff
8GGL 8GGG\	.	8gL 8G\	.	.
8C 8CC\	.	8cc 8c\	.	.
8D#X 8DD#X\	.	8dd#X 8d#X\	.	.
8EJ 8EE\	.	8eeJ 8e\	.	.
=104	=104	=104	=104	=104
8GL 8GG\	.	8ggL 8g\	.	.
8E 8EE\	.	8ee 8e\	.	.
8D#X 8DD#X\	.	8dd#X 8d#X\	.	.
8E 8EE\	.	8ee 8e\	.	.
8G 8GG\	.	8gg 8g\	.	.
8BJ 8BB\	.	8bbJ 8b\	.	.
=105	=105	=105	=105	=105
8cL 8C\	.	8cccL 8cc\	.	.
8G 8GG\	.	8gg 8g\	.	.
8F#X 8FF#X\	.	8ff#X 8f#X\	.	.
8G 8GG\	.	8gg 8g\	.	.
8c 8C\	.	8ccc 8cc\	.	.
*	*	*8va	*	*
8d#XJ 8D#X\	.	8ddd#XJ 8dd#X\	.	.
=106	=106	=106	=106	=106
8eL 8E\	.	8eeeL 8ee\	.	.
8gJ 8G\	.	8ggg 8gg\	.	.
*clefG2	*	*	*	*
8bL 8B\	.	8bbb 8bb\	.	.
8cc 8c\	.	8cccc 8ccc\	.	.
8g 8G\	.	8ggg 8gg\	.	.
8ccJ 8c\	.	8ccccJ 8ccc\	.	.
=107	=107	=107	=107	=107
4ee 4e\	.	4eeee 4eee\	.	.
*	*	*X8va	*	*
4r	.	4r	.	.
4r	.	4r	.	.
!LO:CL:ed	!	!	!	!
*clefF4	*	*	*	*
=108	=108	=108	=108	=108
4e 4c 4G 4C\	.	4ccc 4gg 4ee 4cc 4g\	.	.
4r	.	4r	.	.
4r	.	4r	.	.
=109	=109	=109	=109	=109
8qCC 8qCCC\	.	8qc< 8qC</	.	.
*2\right	*	*	*	*
2.CC 2.CCC\	.	2.c< 2.C</	.	.
==	==	==	==	==
*-	*-	*-	*-	*-
!!!system-decoration: {(s1,s2)}
!!!RDF**kern: < = below
!!!ENC: Marta Lawrence
!!!END: 2021-05-26
!!!ENC: Katarzyna Serwa
!!!END: 2021-05-09
